img/account.svg

<svg width="24" height="24" viewBox="0 0 24 24" fill="none" xmlns="http://www.w3.org/2000/svg">
<path fill-rule="evenodd" clip-rule="evenodd" d="M15.4989 7.39276C15.4989 9.22967 13.9692 10.7855 11.9991 10.7855C10.029 10.7855 8.49936 9.22967 8.49936 7.39276C8.49936 5.55585 10.029 4 11.9991 4C13.9692 4 15.4989 5.55585 15.4989 7.39276ZM15.2538 11.7403C16.6153 10.7587 17.4989 9.17689 17.4989 7.39276C17.4989 4.41442 15.0366 2 11.9991 2C8.96169 2 6.49936 4.41442 6.49936 7.39276C6.49936 9.17705 7.38311 10.7589 8.74482 11.7406C5.24981 13.0324 2.75 16.3447 2.75 20.2504C2.75 20.8027 3.19772 21.2504 3.75 21.2504C4.30228 21.2504 4.75 20.8027 4.75 20.2504C4.75 16.3536 7.97716 13.1612 11.9996 13.1612C16.0221 13.1612 19.2493 16.3536 19.2493 20.2504C19.2493 20.8027 19.697 21.2504 20.2493 21.2504C20.8016 21.2504 21.2493 20.8027 21.2493 20.2504C21.2493 16.3445 18.7491 13.032 15.2538 11.7403Z" fill="#9400B5"/>
</svg>

<svg width="24" height="24" fill="none" xmlns="http://www.w3.org/2000/svg"><path fill-rule="evenodd" clip-rule="evenodd" d="M15.499 7.393c0 1.837-1.53 3.393-3.5 3.393S8.5 9.23 8.5 7.393C8.5 5.556 10.03 4 12 4s3.5 1.556 3.5 3.393zm-.245 4.347c1.361-.981 2.245-2.563 2.245-4.347 0-2.979-2.462-5.393-5.5-5.393-3.037 0-5.5 2.414-5.5 5.393 0 1.784.884 3.366 2.246 4.348-3.495 1.291-5.995 4.604-5.995 8.51a1 1 0 102 0c0-3.897 3.227-7.09 7.25-7.09 4.022 0 7.25 3.193 7.25 7.09a1 1 0 102 0c0-3.907-2.5-7.219-5.996-8.51z" fill="#9400B5"/></svg>
